X: 022078
T: Black Gardens (The)
C: Joe Liddy
Z: BB
S: "The Leitrim Fiddler" (Dublin 1981)
L: 1/8
M: 6/8
R: jig
Q: 1/4 = 170
K: Ador
B | c2A BAG | ABA GED | EAA BAG | AGE GAB |
c2B BAG | AGE GED | ABd edB | dBG A2 :|
d | eaa eaa | ged efg | a2b g2a | edB deg |
bge aba | ged BAG | ABd efg | dBG A2 :|
B | cec BdB | ABA GED | ABA edB | ABA GAB |
cec BdB | ABA GAB | ABd efg | dBG A2 :|
g | a2b age | ged cde | age ged | edB AGE |
A2B AGE | cec deg | age ded | cAG A2 :|
d | eAA BAG | ABA GED | eAA edB | ABG A2f | 
gab age | dBA GAB | cde dBG | ABG A2 :|
%%%%%%%%%%%%%%%%
